Papirus-GTK/24x24/apps/scribus.svg

<svg height="24" width="24" xmlns="http://www.w3.org/2000/svg" xmlns:xlink="http://www.w3.org/1999/xlink"><clipPath id="a"><circle cx="286" cy="26" r="10"/></clipPath><circle cx="12" cy="12" fill="#37a0f2" r="10"/><circle clip-path="url(#a)" cx="286" cy="26" opacity="0" r="10" stroke-width=".45455" transform="translate(-274 -14)"/><circle clip-path="url(#a)" cx="286" cy="26" opacity="0" r="10" stroke-width=".90908998" transform="translate(-274 -14)"/><path d="m12 2c-5.5395 0-9.999 4.46-9.999 10 0 .08386-.002.166645 0 .25.1321-5.423 4.5435-9.75 9.999-9.75 5.4555 0 9.867 4.3268 9.999 9.75.002-.08335 0-.16614 0-.25 0-5.54-4.4595-10-9.999-10z" fill="#fff" opacity=".2"/><path d="m21.9895 11.709a10 10 0 0 1 -9.9895 9.791 10 10 0 0 1 -9.989-9.709 10 10 0 0 0 -.011.209 10 10 0 0 0  10 10 10 10 0 0 0  10-10 10 10 0 0 0 -.0105-.291z" opacity=".3"/><path d="m13 6.977264c-1.63455 2.76485-2.9307 5.232503-3.76785 7.998503-.4435 1.4805-.8435 3.0139-1.232 4.5014.633.0535.51135-.0044.99985.000115.3595-.8045 1.07765-1.57 1.57665-2.1285 1.2386-1.288749 2.41835-1.865549 3.92335-2.371599.022-1.517-.08835-3.0214.52665-4.3519.252-.553003.64735-1.1461035.97335-1.6481035 0-1.5-1.5-3-3-2z" fill-rule="evenodd" opacity=".2"/><path d="m13 6.4772665c-1.63455 2.76485-2.9307 5.2325005-3.76785 7.9985005-.4435 1.4805-.8435 3.0139-1.232 4.5014.633.0535.51135-.0044.99985.000115.3595-.8045 1.07765-1.57 1.57665-2.1285 1.2385-1.288499 2.4185-1.865499 3.9235-2.371499.022-1.517-.0885-3.0215.5265-4.352001.252-.553.6475-1.146.9735-1.648 0-1.5-1.5-3-3-2z" fill="#fff" fill-rule="evenodd"/></svg>

<?xml version="1.0" encoding="UTF-8" standalone="no"?>
<!-- Created with Inkscape (http://www.inkscape.org/) -->

<svg
   xmlns:dc="http://purl.org/dc/elements/1.1/"
   xmlns:cc="http://creativecommons.org/ns#"
   xmlns:rdf="http://www.w3.org/1999/02/22-rdf-syntax-ns#"
   xmlns:svg="http://www.w3.org/2000/svg"
   xmlns="http://www.w3.org/2000/svg"
   xmlns:sodipodi="http://sodipodi.sourceforge.net/DTD/sodipodi-0.dtd"
   xmlns:inkscape="http://www.inkscape.org/namespaces/inkscape"
   id="svg2817"
   height="24"
   width="24"
   version="1.0"
   inkscape:version="0.91 r13725"
   sodipodi:docname="scribus.svg">
  <sodipodi:namedview
     pagecolor="#ffffff"
     bordercolor="#666666"
     borderopacity="1"
     objecttolerance="10"
     gridtolerance="10"
     guidetolerance="10"
     inkscape:pageopacity="0"
     inkscape:pageshadow="2"
     inkscape:window-width="1600"
     inkscape:window-height="845"
     id="namedview14"
     showgrid="false"
     inkscape:zoom="1"
     inkscape:cx="12"
     inkscape:cy="10.691202"
     inkscape:window-x="0"
     inkscape:window-y="32"
     inkscape:window-maximized="1"
     inkscape:current-layer="svg2817" />
  <metadata
     id="metadata57">
    <rdf:RDF>
      <cc:Work
         rdf:about="">
        <dc:format>image/svg+xml</dc:format>
        <dc:type
           rdf:resource="http://purl.org/dc/dcmitype/StillImage" />
        <dc:title />
      </cc:Work>
    </rdf:RDF>
  </metadata>
  <defs
     id="defs2819">
    <clipPath
       id="clipPath4186"
       clipPathUnits="userSpaceOnUse">
      <circle
         id="path4188"
         style="color:#000000"
         cx="286"
         cy="26"
         r="10"
         fill="url(#linearGradient4190)" />
    </clipPath>
  </defs>
  <circle
     id="path4230"
     style="color:#000000;fill:#37a0f2"
     cy="12"
     cx="12"
     r="10" />
  <circle
     id="path4240"
     style="color:#000000;opacity:0;stroke-width:0.45455"
     clip-path="url(#clipPath4186)"
     transform="translate(-274,-14)"
     cy="26"
     cx="286"
     r="10" />
  <circle
     id="path4242"
     style="color:#000000;opacity:0;stroke-width:0.90908998"
     clip-path="url(#clipPath4186)"
     transform="translate(-274,-14)"
     cy="26"
     cx="286"
     r="10" />
  <path
     style="opacity:0.2;fill:#ffffff"
     inkscape:connector-curvature="0"
     id="rect3436"
     d="M 12,2 C 6.4605,2 2.001,6.46 2.001,12 c 0,0.08386 -0.002,0.166645 0,0.25 C 2.1331,6.827 6.5445,2.5 12,2.5 c 5.4555,0 9.867,4.3268 9.999,9.75 0.002,-0.08335 0,-0.16614 0,-0.25 C 21.999,6.46 17.5395,2 12,2 Z" />
  <path
     inkscape:connector-curvature="0"
     id="circle4330"
     style="color:#000000;opacity:0.3"
     d="M 21.9895,11.709 A 10,10 0 0 1 12,21.5 10,10 0 0 1 2.011,11.791 10,10 0 0 0 2,12 10,10 0 0 0 12,22 10,10 0 0 0 22,12 10,10 0 0 0 21.9895,11.709 Z" />
  <path
     inkscape:connector-curvature="0"
     id="path4160"
     style="color:#000000;white-space:normal;opacity:0.2;isolation:auto;mix-blend-mode:normal;solid-color:#000000;fill-rule:evenodd;color-rendering:auto;image-rendering:auto;shape-rendering:auto"
     d="m 13,6.977264 c -1.63455,2.76485 -2.9307,5.232503 -3.76785,7.998503 -0.4435,1.4805 -0.8435,3.0139 -1.232,4.5014 0.633,0.0535 0.51135,-0.0044 0.99985,1.15e-4 0.3595,-0.8045 1.07765,-1.57 1.57665,-2.1285 1.2386,-1.288749 2.41835,-1.865549 3.92335,-2.371599 0.022,-1.517 -0.08835,-3.0214 0.52665,-4.3519 C 15.27865,10.07228 15.674,9.4791795 16,8.9771795 c 0,-1.5 -1.5,-3 -3,-2 z"
     isolation="auto"
     white-space="normal"
     mix-blend-mode="normal" />
  <path
     inkscape:connector-curvature="0"
     id="path29"
     style="color:#000000;white-space:normal;isolation:auto;mix-blend-mode:normal;solid-color:#000000;fill:#ffffff;fill-rule:evenodd;color-rendering:auto;image-rendering:auto;shape-rendering:auto"
     d="m 13,6.4772665 c -1.63455,2.76485 -2.9307,5.2325005 -3.76785,7.9985005 -0.4435,1.4805 -0.8435,3.0139 -1.232,4.5014 0.633,0.0535 0.51135,-0.0044 0.99985,1.15e-4 0.3595,-0.8045 1.07765,-1.57 1.57665,-2.1285 1.2385,-1.288499 2.4185,-1.865499 3.9235,-2.371499 0.022,-1.517 -0.0885,-3.0215 0.5265,-4.352001 0.252,-0.553 0.6475,-1.146 0.9735,-1.648 0,-1.5 -1.5,-3 -3,-2 z"
     isolation="auto"
     mix-blend-mode="normal"
     white-space="normal" />
</svg>
